src/topics/icons/opencv.svg

<svg height="317" preserveAspectRatio="xMidYMid" viewBox="0 0 256 317" width="256" xmlns="http://www.w3.org/2000/svg"><path d="m96.8988295 111.577478c-23.3745341-13.4952935-34.7705958-41.0078203-27.7849178-67.0787254 6.9856779-26.0709051 30.6112203-44.19942139 57.6018073-44.19942139s50.616129 18.12851629 57.601807 44.19942139-4.410383 53.5834319-27.784917 67.0787254l-17.95485-31.0987113c9.299081-5.3688268 13.832771-16.3141233 11.053662-26.6859002-2.779109-10.3717768-12.178048-17.5838365-22.915702-17.5838365-10.737653 0-20.136593 7.2120597-22.915702 17.5838365-2.779109 10.3717769 1.754581 21.3170734 11.053662 26.6859002z" fill="#ff0101"/><path d="m164.965719 237.292642c-23.374534-13.495294-34.770596-41.00782-27.784918-67.078725 6.985678-26.070906 30.611221-44.199422 57.601808-44.199422s50.616129 18.128516 57.601807 44.199422c6.985678 26.070905-4.410384 53.583431-27.784918 67.078725l-17.954849-31.098711c9.299081-5.368827 13.832771-16.314124 11.053662-26.6859-2.77911-10.371777-12.178049-17.583837-22.915702-17.583837-10.737654 0-20.136593 7.21206-22.915702 17.583837-2.779109 10.371776 1.754581 21.317073 11.053662 26.6859z" fill="#0101ff" transform="matrix(-1 0 0 -1 389.565218 363.307138)"/><path d="m119.56689 177.658863c0 26.990587-18.128517 50.616129-44.1994219 57.601807-26.0709051 6.985678-53.5834319-4.410383-67.07872541-27.784918-13.49529353-23.374534-9.6083091-52.899112 9.47691801-71.984339 19.0852272-19.085227 48.6098052-22.972211 71.9843392-9.476918l-17.9548493 31.098712c-9.2990807-5.368827-21.0448307-3.82247-28.6374983 3.770198-7.5926676 7.592667-9.139025 19.338417-3.7701982 28.637498 5.3688267 9.299081 16.3141233 13.832771 26.6859001 11.053662s17.5838365-12.178049 17.5838365-22.915702z" fill="#01ff01"/><path d="m17.3292308 251.590635c5.047224-.453779 10.1501003-.449498 15.1716388.269699 3.095117.54796 6.3785953 1.348495 8.7031438 3.604549 2.4358528 2.718395 3.0351839 6.494181 3.570301 9.974582.877592 7.22194.7748495 14.546622 0 21.772843-.5179933 3.527491-1.0274248 7.337525-3.3391305 10.205752-2.5214715 2.56-6.2458862 3.287759-9.6620735 3.827157-5.0429432.629298-10.1586622.77485-15.2230101.269699-3.4290301-.351036-7.00789294-.954648-9.9274916-2.911036-1.88789298-1.198663-2.90247492-3.313445-3.59170569-5.364014-1.38274247-4.272374-1.55826087-8.810167-1.74662207-13.262341-.02140469-5.882007.08989966-11.823946 1.23719063-17.611772.62073579-2.701271 1.3741806-5.672241 3.65591973-7.474516 3.21498328-2.33311 7.3032776-2.898194 11.1518395-3.300602zm.8347826 8.061004c-2.1233445.32107-4.7689632.496588-6.0489632 2.474381-1.1173244 2.949565-1.078796 6.168829-1.3056857 9.272508-.1070234 5.535251-.3852842 11.121873.4709031 16.614315.3167893 1.853645.9674916 4.062609 3.026622 4.606287 4.4650168 1.365619 9.2425418 1.134449 13.8445485.873311 2.294582-.351036 5.3383278-.547959 6.4556522-2.949565 1.28-3.655919 1.1901003-7.602943 1.348495-11.421538-.0513713-5.368295.2482943-10.839331-1.0359866-16.09204-.3082275-1.866489-2.2432107-2.662743-3.8828094-2.992375-4.2295652-.830502-8.5961204-.727759-12.8727759-.385284zm45.0953846 8.668896c3.0651505-1.947826 6.870903-2.264615 10.4069565-1.943545 3.300602.282542 6.9650836 1.404147 8.7331104 4.443612 2.1105017 3.814314 2.2303679 8.32214 2.3759197 12.577391-.0941806 4.375117-.1755184 8.942877-1.9820736 13.009766-1.0317056 2.470101-3.4033444 4.088295-5.9419398 4.726154-3.8870903.954649-8.1594648 1.057391-11.9052842-.492308-2.024883-.791973-3.4247492-2.512909-4.584883-4.276655v19.996254h-8.5618729c.0042809-16.5501-.0085619-33.104482.0042809-49.654582 2.7697659-.012843 5.5395318-.012843 8.3050168 0-.0941806 1.703813-.1883612 3.403345-.2354515 5.111438 1.0274247-1.254314 1.9820735-2.632776 3.3862207-3.497525zm2.7868896 4.469298c-2.0377257.158394-4.2552508 1.168695-4.8331772 3.300602-1.0916388 3.758662-.8989967 7.739933-.740602 11.609899.265418 2.521472.5779264 5.770703 3.2620735 6.90087 2.8853512 1.117324 6.2159198 1.057391 9.1355184.102742 2.5257525-.890434 2.8939131-3.861404 3.1593311-6.155986.2654181-3.801472.3595987-7.68-.3852842-11.434381-.2525753-1.455519-1.0017392-2.958127-2.4230101-3.570301-2.2432107-.988897-4.7775251-.937525-7.1748495-.753445zm28.973378-4.405084c4.2081605-2.161873 9.1355184-2.23893 13.7546484-2.020602 3.844281.32107 8.510502.963211 10.629566 4.640535 2.388762 4.439331 1.999197 9.662074 2.33311 14.53378h-23.4210034c.27398 2.512909-.0513712 5.222742 1.215786 7.525886 1.0830764 1.819398 3.3819394 2.191839 5.3254854 2.298863 2.401605.017123 4.98729.214047 7.200535-.903278 1.267157-.993177 1.275719-2.756923 1.438394-4.212441 2.7398-.004281 5.479599-.004281 8.219398 0-.102742 2.859665-.470903 6.061806-2.765485 8.073846-3.446154 3.090836-8.377792 3.411906-12.787157 3.497525-3.891371-.115585-8.0010701-.312508-11.4857524-2.230368-2.8211371-1.665284-3.7201337-5.085753-4.2167224-8.099532-.6292976-4.477859-.7876923-9.041338-.2525752-13.536321.4366555-3.548896 1.3913043-7.722809 4.8117726-9.567893zm5.0044144 5.449632c-1.7894312 1.631037-1.6139128 4.336589-1.6909696 6.554114 5.0343816.025686 10.0687626.012843 15.1074246.004281-.008562-1.994916.18408-4.169632-.894716-5.946221-1.057391-1.438394-3.039464-1.532575-4.66622-1.708093-2.624214-.038529-5.518127-.325352-7.855519 1.095919zm39.945418-5.471037c2.962408-2.054849 6.789566-2.341672 10.274248-1.939264 2.966689.312509 6.108896 1.442676 7.859799 4.002676 1.55398 2.123344 1.986355 4.828896 2.007759 7.401739-.012842 7.851237.004281 15.698194-.004281 23.549431-2.714113.004281-5.423946.004281-8.129498 0-.012843-7.427424.008562-14.850568-.012843-22.273712-.081338-1.622475-.017123-3.497525-1.23719-4.747558-1.301405-1.408429-3.343412-1.682409-5.16281-1.669566-2.200401-.012843-4.580602.36388-6.275853 1.883612-1.656722 1.412709-2.28602 3.690168-2.294582 5.796388-.012842 7.003612.004281 14.007224-.008561 21.006555-2.709833.008562-5.419666.008562-8.125218.004281-.004281-11.558528-.004281-23.117056 0-34.675585 2.662743-.008562 5.329766-.004281 7.992509 0-.012843 2.029164-.214047 4.045485-.27398 6.074649.873311-1.639599 1.789431-3.369097 3.390501-4.413646zm34.859666-15.188762c4.486421-1.50689 9.268227-1.720937 13.960134-1.887893 4.546354.021405 9.298194.064214 13.544883 1.896455 2.157592.898996 3.651638 2.868227 4.379398 5.042943 1.185819 3.249231 1.220066 6.76816 1.245752 10.188629-3.129364 0-6.258729.008562-9.383813-.004281-.051371-2.405887.132709-5.102876-1.357056-7.149164-1.50689-1.541137-3.861405-1.536856-5.860602-1.772308-4.06689-.077057-8.300736-.338194-12.196388 1.065953-1.404148.445218-2.131907 1.849365-2.414449 3.202141-.800535 3.630234-.804816 7.376053-.800535 11.079063.047091 4.948763-.029966 9.970301 1.027425 14.837726.278261 1.78087 1.91786 2.876789 3.561739 3.270636 3.801472.946087 7.7699.809097 11.652709.577926 2.024883-.265418 4.490703-.398127 5.762141-2.256053 1.357057-2.217526 1.130167-4.944482 1.057391-7.435987 3.159331-.012843 6.314381-.008562 9.473712 0-.038528 3.93418-.107023 7.996789-1.536856 11.721204-.736321 1.947826-2.256053 3.600267-4.225284 4.34515-3.865686 1.549699-8.103813 1.648161-12.20495 1.896455-4.75612.081338-9.572174-.034247-14.221271-1.14301-2.726956-.710635-5.706488-1.960669-6.969364-4.670501-1.613913-3.583144-1.909298-7.568696-2.324549-11.42582-.346756-5.094314-.569364-10.19719-.445217-15.300067.244013-4.131103.620735-8.484816 2.851103-12.085083 1.18582-2.003479 3.266355-3.257793 5.423947-3.994114zm35.193578-1.442676c3.262074.004281 6.524148-.089899 9.78194.047091 3.172174 10.064481 6.656856 20.02622 9.858997 30.077859 1.245752 3.861405 2.127625 7.834114 3.416187 11.682676 1.442676-4.152509 2.367358-8.467693 3.780067-12.628763 3.129365-9.722006 6.344348-19.414047 9.469432-29.136053 3.219264-.13699 6.44709-.017124 9.670635-.059933v1.065953c-5.299799 16.151973-10.475452 32.346756-15.668227 48.537257-4.84602.098462-9.700602.111305-14.546622-.008562-5.16281-16.554381-10.573914-33.031705-15.762409-49.577525z" fill="#050505"/></svg>

<?xml version="1.0" encoding="UTF-8"?>
<svg width="256px" height="317px" viewBox="0 0 256 317" version="1.1" xmlns="http://www.w3.org/2000/svg" xmlns:xlink="http://www.w3.org/1999/xlink" preserveAspectRatio="xMidYMid">
	<g>
		<path d="M96.8988295,111.577478 C73.5242954,98.0821845 62.1282337,70.5696577 69.1139117,44.4987526 C76.0995896,18.4278475 99.725132,0.299331211 126.715719,0.299331211 C153.706306,0.299331211 177.331848,18.4278475 184.317526,44.4987526 C191.303204,70.5696577 179.907143,98.0821845 156.532609,111.577478 L138.577759,80.4787667 C147.87684,75.1099399 152.41053,64.1646434 149.631421,53.7928665 C146.852312,43.4210897 137.453373,36.20903 126.715719,36.20903 C115.978066,36.20903 106.579126,43.4210897 103.800017,53.7928665 C101.020908,64.1646434 105.554598,75.1099399 114.853679,80.4787667 L96.8988295,111.577478 Z" fill="#FF0101"></path>
		<path d="M164.965719,237.292642 C141.591185,223.797348 130.195123,196.284822 137.180801,170.213917 C144.166479,144.143011 167.792022,126.014495 194.782609,126.014495 C221.773196,126.014495 245.398738,144.143011 252.384416,170.213917 C259.370094,196.284822 247.974032,223.797348 224.599498,237.292642 L206.644649,206.193931 C215.94373,200.825104 220.47742,189.879807 217.698311,179.508031 C214.919201,169.136254 205.520262,161.924194 194.782609,161.924194 C184.044955,161.924194 174.646016,169.136254 171.866907,179.508031 C169.087798,189.879807 173.621488,200.825104 182.920569,206.193931 L164.965719,237.292642 Z" fill="#0101FF" transform="translate(194.782609, 181.653569) rotate(180.000000) translate(-194.782609, -181.653569) "></path>
		<path d="M119.56689,177.658863 C119.56689,204.64945 101.438373,228.274992 75.3674681,235.26067 C49.296563,242.246348 21.7840362,230.850287 8.28874269,207.475752 C-5.20655084,184.101218 -1.31956641,154.57664 17.7656607,135.491413 C36.8508879,116.406186 66.3754659,112.519202 89.7499999,126.014495 L71.7951506,157.113207 C62.4960699,151.74438 50.7503199,153.290737 43.1576523,160.883405 C35.5649847,168.476072 34.0186273,180.221822 39.3874541,189.520903 C44.7562808,198.819984 55.7015774,203.353674 66.0733542,200.574565 C76.445131,197.795456 83.6571907,188.396516 83.6571907,177.658863 L119.56689,177.658863 Z" fill="#01FF01"></path>
		<path d="M17.3292308,251.590635 C22.3764548,251.136856 27.4793311,251.141137 32.5008696,251.860334 C35.5959866,252.408294 38.8794649,253.208829 41.2040134,255.464883 C43.6398662,258.183278 44.2391973,261.959064 44.7743144,265.439465 C45.6519064,272.661405 45.5491639,279.986087 44.7743144,287.212308 C44.2563211,290.739799 43.7468896,294.549833 41.4351839,297.41806 C38.9137124,299.97806 35.1892977,300.705819 31.7731104,301.245217 C26.7301672,301.874515 21.6144482,302.020067 16.5501003,301.514916 C13.1210702,301.16388 9.54220736,300.560268 6.6226087,298.60388 C4.73471572,297.405217 3.72013378,295.290435 3.03090301,293.239866 C1.64816054,288.967492 1.47264214,284.429699 1.28428094,279.977525 C1.26287625,274.095518 1.3741806,268.153579 2.52147157,262.365753 C3.14220736,259.664482 3.89565217,256.693512 6.1773913,254.891237 C9.39237458,252.558127 13.4806689,251.993043 17.3292308,251.590635 Z M18.1640134,259.651639 C16.0406689,259.972709 13.3950502,260.148227 12.1150502,262.12602 C10.9977258,265.075585 11.0362542,268.294849 10.8093645,271.398528 C10.7023411,276.933779 10.4240803,282.520401 11.2802676,288.012843 C11.5970569,289.866488 12.2477592,292.075452 14.3068896,292.61913 C18.7719064,293.984749 23.5494314,293.753579 28.1514381,293.492441 C30.4460201,293.141405 33.4897659,292.944482 34.6070903,290.542876 C35.8870903,286.886957 35.7971906,282.939933 35.9555853,279.121338 C35.904214,273.753043 36.2038796,268.282007 34.9195987,263.029298 C34.6113712,261.162809 32.676388,260.366555 31.0367893,260.036923 C26.8072241,259.206421 22.4406689,259.309164 18.1640134,259.651639 Z M63.259398,268.320535 C66.3245485,266.372709 70.130301,266.05592 73.6663545,266.37699 C76.9669565,266.659532 80.6314381,267.781137 82.3994649,270.820602 C84.5099666,274.634916 84.6298328,279.142742 84.7753846,283.397993 C84.681204,287.77311 84.5998662,292.34087 82.793311,296.407759 C81.7616054,298.87786 79.3899666,300.496054 76.8513712,301.133913 C72.9642809,302.088562 68.6919064,302.191304 64.946087,300.641605 C62.921204,299.849632 61.5213378,298.128696 60.361204,296.36495 L60.361204,316.361204 L51.7993311,316.361204 C51.803612,299.811104 51.7907692,283.256722 51.803612,266.706622 C54.5733779,266.693779 57.3431438,266.693779 60.1086288,266.706622 C60.0144482,268.410435 59.9202676,270.109967 59.8731773,271.81806 C60.900602,270.563746 61.8552508,269.185284 63.259398,268.320535 Z M66.0462876,272.789833 C64.0085619,272.948227 61.7910368,273.958528 61.2131104,276.090435 C60.1214716,279.849097 60.3141137,283.830368 60.4725084,287.700334 C60.7379264,290.221806 61.0504348,293.471037 63.7345819,294.601204 C66.6199331,295.718528 69.9505017,295.658595 72.8701003,294.703946 C75.3958528,293.813512 75.7640134,290.842542 76.0294314,288.54796 C76.2948495,284.746488 76.3890301,280.86796 75.6441472,277.113579 C75.3915719,275.65806 74.642408,274.155452 73.2211371,273.543278 C70.9779264,272.554381 68.443612,272.605753 66.0462876,272.789833 Z M95.0196656,268.384749 C99.2278261,266.222876 104.155184,266.145819 108.774314,266.364147 C112.618595,266.685217 117.284816,267.327358 119.40388,271.004682 C121.792642,275.444013 121.403077,280.666756 121.73699,285.538462 L98.3159866,285.538462 C98.5899666,288.051371 98.2646154,290.761204 99.5317726,293.064348 C100.614849,294.883746 102.913712,295.256187 104.857258,295.363211 C107.258863,295.380334 109.844548,295.577258 112.057793,294.459933 C113.32495,293.466756 113.333512,291.70301 113.496187,290.247492 C116.235987,290.243211 118.975786,290.243211 121.715585,290.247492 C121.612843,293.107157 121.244682,296.309298 118.9501,298.321338 C115.503946,301.412174 110.572308,301.733244 106.162943,301.818863 C102.271572,301.703278 98.1618729,301.506355 94.6771906,299.588495 C91.8560535,297.923211 90.9570569,294.502742 90.4604682,291.488963 C89.8311706,287.011104 89.6727759,282.447625 90.207893,277.952642 C90.6445485,274.403746 91.5991973,270.229833 95.0196656,268.384749 Z M100.02408,273.834381 C98.2346488,275.465418 98.4101672,278.17097 98.3331104,280.388495 C103.367492,280.414181 108.401873,280.401338 113.440535,280.392776 C113.431973,278.39786 113.624615,276.223144 112.545819,274.446555 C111.488428,273.008161 109.506355,272.91398 107.879599,272.738462 C105.255385,272.699933 102.361472,272.41311 100.02408,273.834381 Z M139.969498,268.363344 C142.931906,266.308495 146.759064,266.021672 150.243746,266.42408 C153.210435,266.736589 156.352642,267.866756 158.103545,270.426756 C159.657525,272.5501 160.0899,275.255652 160.111304,277.828495 C160.098462,285.679732 160.115585,293.526689 160.107023,301.377926 C157.39291,301.382207 154.683077,301.382207 151.977525,301.377926 C151.964682,293.950502 151.986087,286.527358 151.964682,279.104214 C151.883344,277.481739 151.947559,275.606689 150.727492,274.356656 C149.426087,272.948227 147.38408,272.674247 145.564682,272.68709 C143.364281,272.674247 140.98408,273.05097 139.288829,274.570702 C137.632107,275.983411 137.002809,278.26087 136.994247,280.36709 C136.981405,287.370702 136.998528,294.374314 136.985686,301.373645 C134.275853,301.382207 131.56602,301.382207 128.860468,301.377926 C128.856187,289.819398 128.856187,278.26087 128.860468,266.702341 C131.523211,266.693779 134.190234,266.69806 136.852977,266.702341 C136.840134,268.731505 136.63893,270.747826 136.578997,272.77699 C137.452308,271.137391 138.368428,269.407893 139.969498,268.363344 Z M174.829164,253.174582 C179.315585,251.667692 184.097391,251.453645 188.789298,251.286689 C193.335652,251.308094 198.087492,251.350903 202.334181,253.183144 C204.491773,254.08214 205.985819,256.051371 206.713579,258.226087 C207.899398,261.475318 207.933645,264.994247 207.959331,268.414716 C204.829967,268.414716 201.700602,268.423278 198.575518,268.410435 C198.524147,266.004548 198.708227,263.307559 197.218462,261.261271 C195.711572,259.720134 193.357057,259.724415 191.35786,259.488963 C187.29097,259.411906 183.057124,259.150769 179.161472,260.554916 C177.757324,261.000134 177.029565,262.404281 176.747023,263.757057 C175.946488,267.387291 175.942207,271.13311 175.946488,274.83612 C175.993579,279.784883 175.916522,284.806421 176.973913,289.673846 C177.252174,291.454716 178.891773,292.550635 180.535652,292.944482 C184.337124,293.890569 188.305552,293.753579 192.188361,293.522408 C194.213244,293.25699 196.679064,293.124281 197.950502,291.266355 C199.307559,289.048829 199.080669,286.321873 199.007893,283.830368 C202.167224,283.817525 205.322274,283.821806 208.481605,283.830368 C208.443077,287.764548 208.374582,291.827157 206.944749,295.551572 C206.208428,297.499398 204.688696,299.151839 202.719465,299.896722 C198.853779,301.446421 194.615652,301.544883 190.514515,301.793177 C185.758395,301.874515 180.942341,301.75893 176.293244,300.650167 C173.566288,299.939532 170.586756,298.689498 169.32388,295.979666 C167.709967,292.396522 167.414582,288.41097 166.999331,284.553846 C166.652575,279.459532 166.429967,274.356656 166.554114,269.253779 C166.798127,265.122676 167.174849,260.768963 169.405217,257.168696 C170.591037,255.165217 172.671572,253.910903 174.829164,253.174582 Z M210.022742,251.731906 C213.284816,251.736187 216.54689,251.642007 219.804682,251.778997 C222.976856,261.843478 226.461538,271.805217 229.663679,281.856856 C230.909431,285.718261 231.791304,289.69097 233.079866,293.539532 C234.522542,289.387023 235.447224,285.071839 236.859933,280.910769 C239.989298,271.188763 243.204281,261.496722 246.329365,251.774716 C249.548629,251.637726 252.776455,251.757592 256,251.714783 L256,252.780736 C250.700201,268.932709 245.524548,285.127492 240.331773,301.317993 C235.485753,301.416455 230.631171,301.429298 225.785151,301.309431 C220.622341,284.75505 215.211237,268.277726 210.022742,251.731906 Z" fill="#050505"></path>
	</g>
</svg>
